icons/git-compare-16.svg

<svg width="16" height="16" viewBox="0 0 16 16" fill="none" xmlns="http://www.w3.org/2000/svg">
<path fill-rule="evenodd" clip-rule="evenodd" d="M9.57322 0.676753L7.17677 3.07322C7.07914 3.17085 7.07914 3.32914 7.17677 3.42677L9.57322 5.8232C9.73071 5.98069 9.99999 5.86915 9.99999 5.64642V4H11C11.5523 4 12 4.44772 12 5V10.628C11.1261 10.9369 10.5 11.7703 10.5 12.75C10.5 13.9926 11.5074 15 12.75 15C13.9926 15 15 13.9926 15 12.75C15 11.7703 14.3739 10.9369 13.5 10.628V5C13.5 3.61929 12.3807 2.5 11 2.5H9.99999V0.853529C9.99999 0.630802 9.73071 0.51926 9.57322 0.676753ZM6.00001 12V10.3535C6.00001 10.1308 6.26929 10.0193 6.42678 10.1768L8.82323 12.5732C8.92086 12.6708 8.92086 12.8291 8.82323 12.9267L6.42678 15.3232C6.26929 15.4807 6.00001 15.3692 6.00001 15.1464V13.5H5C3.61929 13.5 2.5 12.3807 2.5 11V5.37194C1.62611 5.06306 1 4.22963 1 3.24997C1 2.00733 2.00736 0.999969 3.25 0.999969C4.49264 0.999969 5.5 2.00733 5.5 3.24997C5.5 4.22963 4.87389 5.06306 4 5.37194V11C4 11.5523 4.44772 12 5 12H6.00001ZM12.75 12C12.3358 12 12 12.3358 12 12.75C12 13.1642 12.3358 13.5 12.75 13.5C13.1642 13.5 13.5 13.1642 13.5 12.75C13.5 12.3358 13.1642 12 12.75 12ZM4 3.24997C4 3.66418 3.66421 3.99997 3.25 3.99997C2.83579 3.99997 2.5 3.66418 2.5 3.24997C2.5 2.83576 2.83579 2.49997 3.25 2.49997C3.66421 2.49997 4 2.83576 4 3.24997Z" fill="#24292E"/>
</svg>

<svg xmlns="http://www.w3.org/2000/svg" width="16" height="16" viewBox="0 0 16 16"><path fill-rule="evenodd" d="M9.573.677L7.177 3.073a.25.25 0 000 .354l2.396 2.396A.25.25 0 0010 5.646V4h1a1 1 0 011 1v5.628a2.251 2.251 0 101.5 0V5A2.5 2.5 0 0011 2.5h-1V.854a.25.25 0 00-.427-.177zM6 12v-1.646a.25.25 0 01.427-.177l2.396 2.396a.25.25 0 010 .354l-2.396 2.396A.25.25 0 016 15.146V13.5H5A2.5 2.5 0 012.5 11V5.372a2.25 2.25 0 111.5 0V11a1 1 0 001 1h1zm6.75 0a.75.75 0 100 1.5.75.75 0 000-1.5zM4 3.25a.75.75 0 11-1.5 0 .75.75 0 011.5 0z"/></svg>
